X:199
T: ES THAET EIN KOENIG AUSREITEN
N: E0107B
O: Europa, Mitteleuropa, Deutschland, Altmark
R: erzaehlendes Volks - Lied, Sage, Liebe, Leid, Tod
M: 3/8
L: 1/8
K: G
D | G2G | GFG | AGz | z2
D | G2G | GFG | AGz | z2
B | d2A | cBA | GBB | A2
A | DDF | D2F | AGF | G2

